X:1
T:The Thorn Tree
R:slipjig
L:1/8
Q:1/4=120
M:9/8
K:G
V:1
|: B2 e{g} ede g3 | afd f>gf/e/ dBA | B2 e{g} ede gab | aba{a} fed ef/g/a | 
bgb afa ga/g/f | ee/e/e g eed gf | e3{g} edB{d} BAB |1 G2 B{B} AFD EF/G/A :|2 G2 B{B} AFD E3 |] 
